dist/img/pusets/step-5.svg

<svg width="47" height="46" viewBox="0 0 47 46" fill="none" xmlns="http://www.w3.org/2000/svg">
<path d="M46.0168 31.2378L30.6021 4.5385C30.2424 3.91552 29.6617 3.46971 28.967 3.28302L17.2033 0.124019C16.8067 0.017554 16.4025 -0.0196414 16.0047 0.00964771C15.9699 0.00560474 15.9347 0.00290942 15.8989 0.00290942H3.78853C2.32947 0.00290942 1.06474 0.941059 0.641392 2.33732C0.367368 3.24133 0.495396 4.22027 0.992861 5.02329C1.49033 5.82632 2.30979 6.37697 3.24111 6.5342L7.6396 7.27667L5.24257 9.67101C4.73279 10.1802 4.45212 10.8575 4.45212 11.5779V42.4062C4.45212 44.3878 6.06428 46 8.04587 46H24.7567C25.7733 46 26.7311 45.5654 27.4043 44.8322C27.437 44.8419 27.4694 44.8522 27.5026 44.8611C27.8122 44.9441 28.1263 44.9851 28.4385 44.9851C29.0612 44.9851 29.6758 44.8218 30.2295 44.5021L44.7015 36.1467C45.5329 35.6668 46.1275 34.8918 46.376 33.9646C46.6243 33.0374 46.4967 32.0691 46.0168 31.2378ZM3.54029 4.76248C3.11165 4.69006 2.7494 4.44668 2.52048 4.07706C2.29146 3.70744 2.23486 3.27475 2.361 2.85869C2.553 2.22529 3.12674 1.79979 3.78862 1.79979H13.1227L9.20019 5.71788L3.54029 4.76248ZM12.067 5.39399L11.8595 6.16683L11.3751 6.08507L12.067 5.39399ZM24.7568 44.2032H10.5614V36.2983C10.5614 35.8021 10.1592 35.3999 9.66297 35.3999C9.16677 35.3999 8.76453 35.8021 8.76453 36.2983V44.2033H8.04578C7.05499 44.2033 6.24891 43.3972 6.24891 42.4064V11.5779C6.24891 11.3378 6.34252 11.112 6.51242 10.9423L9.81463 7.64377L11.3914 7.90998L9.63728 14.4418C9.4504 15.1376 9.54582 15.8646 9.90618 16.4885L25.3204 43.1867C25.4614 43.431 25.6285 43.6542 25.8169 43.8547C25.5135 44.0767 25.1437 44.2032 24.7568 44.2032ZM44.6402 33.4996C44.516 33.9632 44.2186 34.3507 43.803 34.5906L29.331 42.946C28.9153 43.186 28.431 43.2496 27.9675 43.1255C27.5039 43.0013 27.1164 42.704 26.8764 42.2883L11.4622 15.5903C11.3422 15.3823 11.3103 15.14 11.3725 14.9081L13.1711 8.2106L15.862 8.66485C15.9245 9.00365 16.0451 9.33292 16.2225 9.6401C16.6305 10.3467 17.2892 10.8522 18.0773 11.0633C18.3405 11.1338 18.6076 11.1687 18.8729 11.1687C19.4022 11.1687 19.9246 11.0299 20.3953 10.7581C21.1019 10.3501 21.6074 9.6914 21.8185 8.90329C22.0297 8.11518 21.9214 7.29194 21.5134 6.58532C21.1054 5.8787 20.4467 5.37324 19.6586 5.1621C18.8704 4.95088 18.0472 5.05932 17.3406 5.46721C16.7713 5.79586 16.3329 6.28749 16.0734 6.87812L13.6393 6.46726L14.5358 3.12876C14.6604 2.66525 14.9578 2.27794 15.3736 2.03814C15.6503 1.87858 15.9573 1.79709 16.2683 1.79709C16.4247 1.79709 16.5821 1.81767 16.7372 1.85935L23.5507 3.68911C23.5569 3.70106 23.5623 3.71328 23.5691 3.72505L27.9272 11.2735C28.0936 11.5618 28.3956 11.7228 28.7061 11.7228C28.8585 11.7228 29.013 11.684 29.1545 11.6023C29.5842 11.3542 29.7315 10.8047 29.4833 10.375L26.0035 4.34785L28.5008 5.01844C28.7324 5.08061 28.9259 5.22931 29.0459 5.43693L44.4607 32.1361C44.7007 32.5518 44.7643 33.036 44.6402 33.4996ZM18.1386 7.2268L18.0002 7.20344C18.0719 7.13525 18.1512 7.07416 18.239 7.0234C18.4328 6.91145 18.6479 6.8544 18.8659 6.8544C18.9751 6.8544 19.0851 6.86878 19.1934 6.8978C19.5179 6.98477 19.7892 7.19284 19.9572 7.48385C20.1252 7.77485 20.1698 8.11374 20.0828 8.43835C19.9958 8.76286 19.7877 9.0341 19.4967 9.20211C19.2058 9.37021 18.8668 9.41477 18.5422 9.32771C18.3299 9.27084 18.1411 9.16123 17.9884 9.01128C17.989 9.01119 17.9895 9.01128 17.9902 9.01128C18.4206 9.01128 18.8009 8.70087 18.8749 8.26225C18.9575 7.77296 18.6279 7.30937 18.1386 7.2268Z" fill="#D79081"/>
<path d="M10.2983 31.0728C10.1312 30.9057 9.89938 30.8096 9.66309 30.8096C9.4268 30.8096 9.195 30.9057 9.02789 31.0728C8.86078 31.2399 8.76465 31.4717 8.76465 31.7089C8.76465 31.9443 8.86078 32.1761 9.02789 32.3441C9.195 32.5112 9.4268 32.6064 9.66309 32.6064C9.89938 32.6064 10.1312 32.5112 10.2983 32.3441C10.4654 32.1761 10.5615 31.9452 10.5615 31.7089C10.5614 31.4717 10.4653 31.2399 10.2983 31.0728Z" fill="#D79081"/>
<path d="M31.6362 14.1641C31.4691 13.997 31.2373 13.9009 31.001 13.9009C30.7638 13.9009 30.5329 13.997 30.3649 14.1641C30.1978 14.3312 30.1025 14.563 30.1025 14.7993C30.1025 15.0365 30.1978 15.2674 30.3649 15.4345C30.5329 15.6025 30.7647 15.6978 31.001 15.6978C31.2373 15.6978 31.4682 15.6025 31.6362 15.4345C31.8033 15.2674 31.8994 15.0356 31.8994 14.7993C31.8994 14.563 31.8033 14.3321 31.6362 14.1641Z" fill="#D79081"/>
</svg>

<svg width="100%" height="100%" viewBox="0 0 47 46" xmlns="http://www.w3.org/2000/svg" fill="none" style="color: inherit;"><path d="M46.017 31.238l-15.415-26.699c-.36-.623-.94-1.069-1.635-1.255l-11.764-3.159c-.397-.106-.801-.144-1.199-.114l-.106-.007h-12.11c-1.459 0-2.724.938-3.147 2.334-.274.904-.146 1.883.351 2.686.497.803 1.317 1.354 2.248 1.511l4.398.742-2.397 2.394c-.51.509-.79 1.186-.79 1.907v30.828c0 1.982 1.612 3.594 3.594 3.594h16.711c1.017 0 1.974-.435 2.648-1.168l.098.029c.31.083.624.124.936.124.623 0 1.237-.163 1.791-.483l14.472-8.355c.831-.48 1.426-1.255 1.674-2.182s.121-1.895-.359-2.727zm-42.477-26.475c-.429-.072-.791-.316-1.02-.685-.229-.37-.286-.802-.159-1.218.192-.633.766-1.059 1.428-1.059h9.334l-3.923 3.918-5.66-.955zm8.527.632l-.207.773-.484-.082.692-.691zm12.69 38.809h-14.195v-7.905c0-.496-.402-.898-.898-.898s-.898.402-.898.898v7.905h-.719c-.991 0-1.797-.806-1.797-1.797v-30.828c0-.24.094-.466.264-.636l3.302-3.299 1.577.266-1.754 6.532c-.187.696-.091 1.423.269 2.047l15.414 26.698c.141.244.308.468.497.668-.303.222-.673.349-1.06.349zm19.883-10.704c-.124.464-.422.851-.837 1.091l-14.472 8.355c-.416.24-.9.304-1.363.18-.464-.124-.851-.422-1.091-.837l-15.414-26.698c-.12-.208-.152-.45-.09-.682l1.799-6.697 2.691.454c.063.339.183.668.361.975.408.707 1.067 1.212 1.855 1.423.263.071.53.105.796.105.529 0 1.052-.139 1.522-.411.707-.408 1.212-1.067 1.423-1.855.211-.788.103-1.611-.305-2.318-.408-.707-1.067-1.212-1.855-1.423-.788-.211-1.611-.103-2.318.305-.569.329-1.008.82-1.267 1.411l-2.434-.411.896-3.338c.125-.464.422-.851.838-1.091.277-.16.584-.241.895-.241.156 0 .314.021.469.062l6.813 1.83.018.036 4.358 7.548c.166.288.468.449.779.449.152 0 .307-.039.448-.12.43-.248.577-.798.329-1.227l-3.48-6.027 2.497.671c.232.062.425.211.545.418l15.415 26.699c.24.416.304.9.179 1.364zm-26.502-26.273l-.138-.023.239-.18c.194-.112.409-.169.627-.169.109 0 .219.014.328.043.325.087.596.295.764.586.168.291.213.63.126.954-.087.325-.295.596-.586.764-.291.168-.63.213-.954.126-.212-.057-.401-.166-.554-.316h.002c.43 0 .811-.31.885-.749.083-.489-.247-.953-.736-1.035zM10.298 31.073c-.167-.167-.399-.263-.635-.263s-.468.096-.635.263c-.167.167-.263.399-.263.636 0 .235.096.467.263.635.167.167.399.262.635.262s.468-.095.635-.262c.167-.168.263-.399.263-.635 0-.237-.096-.469-.263-.636zM31.636 14.164c-.167-.167-.399-.263-.635-.263-.237 0-.468.096-.636.263-.167.167-.262.399-.262.635 0 .237.095.468.262.635.168.168.4.263.636.263s.467-.095.635-.263c.167-.167.263-.399.263-.635s-.096-.467-.263-.635z" fill="currentColor"/></svg>
